packages/core/src/svgs/ghost.svg

<svg width="24" height="24" viewBox="0 0 24 24" fill="none" xmlns="http://www.w3.org/2000/svg">
<g clip-path="url(#clip0_31_10772)">
<path d="M0 0H24V24H0V0Z" fill="#02111F"/>
<path fill-rule="evenodd" clip-rule="evenodd" d="M16.5377 9.26964C16.5377 9.33307 16.5364 9.3965 16.5338 9.45907H16.5381C17.1681 8.95335 18.4286 8.82736 18.4286 9.64893C18.4286 10.4084 17.4707 11.3572 16.7143 12.3061V15.0001C16.7271 15.6429 16.425 16.6972 16.2857 16.7144C16.2857 16.7144 16.2857 16.0715 15.8571 16.0715C15.4286 16.0715 14.7857 18.2144 14.7857 18.2144C14.7857 18.2144 14.5714 17.7858 14.3571 17.7858C13.8416 17.7858 13.5 18.8572 13.5 18.8572C13.5 18.8572 13.23 18.5611 12.8571 18.8572C12.6278 19.0394 12.3248 20.2346 12.126 20.2346C11.9477 20.2346 12 18.2144 11.1428 18.2144C10.5 18.2144 10.5 19.0715 10.5 19.0715C10.0714 19.0715 9.64284 17.1429 9.21427 17.1429C8.7857 17.1429 8.7857 17.5715 8.7857 17.5715C8.57141 17.5715 8.57141 16.0715 8.14284 16.0715C7.92855 16.0715 7.92855 16.5001 7.71427 16.5001C7.49998 16.5001 7.27284 15.4286 7.2857 15.0001V12.3061C6.52927 11.3572 5.57141 10.4084 5.57141 9.64893C5.57141 8.82736 6.83184 8.95335 7.46227 9.45907H7.46613C7.46341 9.39596 7.46198 9.33281 7.46184 9.26964C7.46227 6.75393 9.49413 4.71436 12 4.71436C14.5063 4.71436 16.5377 6.75393 16.5377 9.26964ZM9.7637 9.26964C9.69269 9.19832 9.65283 9.10178 9.65283 9.00114C9.65283 8.9005 9.69269 8.80396 9.7637 8.73264C9.79874 8.69746 9.84038 8.66954 9.88624 8.6505C9.93209 8.63145 9.98126 8.62164 10.0309 8.62164C10.0806 8.62164 10.1297 8.63145 10.1756 8.6505C10.2214 8.66954 10.2631 8.69746 10.2981 8.73264L10.5656 9.00093C10.6366 9.07225 10.6764 9.16879 10.6764 9.26943C10.6764 9.37006 10.6366 9.46661 10.5656 9.53793C10.5305 9.57311 10.4889 9.60102 10.443 9.62007C10.3972 9.63912 10.348 9.64892 10.2983 9.64892C10.2487 9.64892 10.1995 9.63912 10.1537 9.62007C10.1078 9.60102 10.0662 9.57311 10.0311 9.53793L9.7637 9.26964ZM14.1908 8.73264C14.2618 8.80396 14.3017 8.9005 14.3017 9.00114C14.3017 9.10178 14.2618 9.19832 14.1908 9.26964L13.923 9.53793C13.8879 9.57311 13.8463 9.60102 13.8004 9.62007C13.7546 9.63912 13.7054 9.64892 13.6558 9.64892C13.6061 9.64892 13.5569 9.63912 13.5111 9.62007C13.4652 9.60102 13.4236 9.57311 13.3886 9.53793C13.3176 9.46661 13.2777 9.37006 13.2777 9.26943C13.2777 9.16879 13.3176 9.07225 13.3886 9.00093L13.6556 8.73264C13.6906 8.6974 13.7323 8.66943 13.7782 8.65034C13.8241 8.63125 13.8733 8.62143 13.923 8.62143C13.9727 8.62143 14.0219 8.63125 14.0678 8.65034C14.1137 8.66943 14.1558 8.6974 14.1908 8.73264Z" fill="white"/>
</g>
<defs>
<clipPath id="clip0_31_10772">
<rect width="24" height="24" fill="white"/>
</clipPath>
</defs>
</svg>

<svg xmlns="http://www.w3.org/2000/svg" width="24" height="24" fill="none" viewBox="0 0 24 24"><g clip-path="url(#a)"><path fill="#02111F" d="M0 0h24v24H0z"/><path fill="#fff" fill-rule="evenodd" d="M16.538 9.27q0 .095-.004.19h.004c.63-.507 1.89-.633 1.89.189 0 .76-.957 1.708-1.714 2.657V15c.013.643-.289 1.697-.428 1.714 0 0 0-.642-.429-.642-.428 0-1.071 2.142-1.071 2.142s-.215-.428-.429-.428c-.515 0-.857 1.071-.857 1.071s-.27-.296-.643 0c-.23.182-.532 1.378-.731 1.378-.178 0-.126-2.02-.983-2.02-.643 0-.643.857-.643.857-.429 0-.857-1.93-1.286-1.93-.428 0-.428.43-.428.43-.215 0-.215-1.5-.643-1.5-.214 0-.214.428-.429.428-.214 0-.441-1.071-.428-1.5v-2.694c-.757-.949-1.715-1.898-1.715-2.657 0-.822 1.26-.696 1.891-.19h.004l-.004-.19c0-2.515 2.032-4.555 4.538-4.555s4.538 2.04 4.538 4.556m-6.774 0a.38.38 0 0 1 .267-.648.38.38 0 0 1 .267.11l.268.269a.38.38 0 0 1-.268.648.38.38 0 0 1-.267-.111zm4.427-.537a.38.38 0 0 1 0 .537l-.268.268a.378.378 0 0 1-.645-.269c0-.1.04-.197.11-.268l.268-.268a.377.377 0 0 1 .535 0" clip-rule="evenodd"/></g><defs><clipPath id="a"><path fill="#fff" d="M0 0h24v24H0z"/></clipPath></defs></svg>
